X:32
T:Boys of Ballycastle, The
R:hornpipe
D:Kevin Burke: Up Close
Z:id:hn-hornpipe-32
M:C|
K:Em
ef|gfed ed (3B^cd|edeg B2BA|G2GA BA (3B^cd|e2A2 A2ga|
bagf gfed|edeg B2BA|G2GA BcBA|G2E2 E2:|
|:gf|eBBA B2gf|eBBA B2gf|edef gfga|b2e2 e2ga|
bagf gfed|edeg B2BA|GFGA BcBA|G2E2 E2:|
<end>
<start>
